X:1
T:Title
%%score { ( 1 3 5 ) | ( 2 4 ) }
L:1/8
Q:1/4=80
M:4/4
K:G
V:1 treble nm="Piano" snm="Pno."
V:3 treble 
V:5 treble 
V:2 bass 
V:4 bass 
V:1
!mf! [B,D]/G,/[B,D]/G,/ [B,D]/G,/[B,D]/G,/ [B,D]/G,/[B,D]/G,/ [B,D]/G,/[B,D]/G,/ | %1
 [A,D]/F,/[A,D]/F,/ [A,D]/F,/[A,D]/F,/- [F,A,F]4 | z8 | %3
 [B,D]/G,/[B,D]/G,/ [B,D]/G,/[B,D]/G,/ [B,D]/G,/[B,D]/G,/ [B,D]/G,/[B,D]/G,/ | %4
 !>![A,D]/F,/[A,D]/F,/ [A,D]/F,/[A,D]/F,/ !>![DF]/A,/[DF]/A,/ [DF]/A,/[DF]/A,/ | %5
 !>![CE]/A,/[CE]/A,/ [CE]/A,/[CE]/A,/ [CE]/A,/[CE]/A,/ [CE]/A,/[CE]/A,/ | %6
 E/B,/E/B,/ E/B,/E/B,/ G/E/G/E/ G/E/G/E/ |!<(! !>!d8!<)! | !>!c4 !>!e4 | d4- dcBA | AGFE DCB,A, | %11
 [G,B,D][G,B,D] [G,B,D][G,B,D] [G,B,D][G,B,D] [G,B,D][G,B,D] | [A,D][A,D][A,D][A,D] D4- | D4 z4 | %14
 !>![G,B,D]4 !>![G,DG]4 | !>![A,DF]8 | [G,DG]4 [B,DG]4 | z2 [DGBd] z z2 [CDF] z | %18
 [B,DG][K:bass] D,E,F, G,A,B,A, | G,D,E,F, G,A,B,C |[K:treble] D_D=DE FEFG | %21
 ([FA][EG][DF][_DE]) ([FA][EG][=DF][_DE]) | %22
[K:bass] [F,A,D][F,A,D][F,A,D][F,A,D] [F,A,D][F,A,D][F,A,D][F,A,D] | %23
 [D,A,D][D,A,D][D,A,D][D,A,D] [D,A,D][D,A,D][D,A,D][D,A,D] | [E,A,_D]4 (D2 E2) | (E2 _D2 =D2) z2 | %26
 z [F,B,D][F,B,D][F,B,D] [F,B,D]4 | z [E,B,D][E,B,D][E,B,D] [E,B,D]2 z2 | %28
 z [G,B,D][G,B,D][G,B,D] [G,B,D]4 | z [F,A,D][F,A,D][F,A,D] [F,A,D]2[K:treble] [A,E]2 | %30
 !>!G4 !>!B4 |!mp! !>![DAd]8 |!p! [G,_D]8- | [G,D]8- | [G,D]2 z2 z4 | A,2 B,4- _D2 | z8 | %37
 [F,A,D] (!tenuto![DA]!tenuto![DA]!tenuto![DB] !tenuto![DB]!tenuto![Gd]!tenuto![Gd]!tenuto![Ae]) | %38
 [Ae]2- [Ae] z z4 | %39
 z (!tenuto![A,E]!tenuto![A,E]!tenuto![A,F] !tenuto![A,F]!tenuto![DA]!tenuto![DA]!tenuto![EB] | %40
 [EB]2- [EB]) z z4 | z [Ae][Ae][_da] [da][Ae][Ae][Gd] | (_d2 G2) =d4 | [EA]4 [DA]4 | G4 [=DF]4 | %45
 ([G,B,E]2 [F,A,D]2 [E,G,_D]4) | ([F,A,D]2 [G,_DE]2 [A,=DF]4) |!mf! !>![F,A,D]4 !>![A,DF]4 | %48
 [A,_DEA]4- [A,DEA] z z2 |!p! [Ae]4 [Ae]2 [Gg]2 | f6 d2 | (d2 _d2 B2 A2) | %52
 [A,FA][G,G][A,A][B,B] [_D_d][=D=d][Ee][Ff] |!f! !>![A,DF]2 !>![DFA]2 !>![FAd]4- | [FAd]4 [A,DF]4 | %55
 D6 _D2 |!p! [F,A,D][F,A,D][F,A,D][F,A,D] [A,DF][A,DF][A,DF][A,DF] | %57
 [A,DF][A,DF][A,DF][A,DF] [G,DG][G,DG][G,DG][G,DG] | %58
!mf! [A,_DA][A,DA][DEA][DEA] [EA_d][EAd][EAd][EAd] | [DGd][DGd][DGd][DGd] [_DGe][DGe][DGe][DGe] | %60
"_dim." [DFA][DFA][DFA][DFA] [DGB][DGB][DGB][DGB] | [_DEB][DEB][DEB][DEB] [=DA][DA][DA][DA] | %62
 [A,DA][A,DA][A,DA][A,DA] [G,DG][G,DG][G,DG][G,DG] | %63
 [G,B,G][G,B,G][G,A,E][G,A,E] [E,A,E][E,A,E][E,A,E][E,A,E] | %64
!p! ([FAd][FAd][FAd][FAd] [FAd][FAd][FAd][FAd]) | [Gd][Gd][Gd][Gd] [Fd][Fd][Gd][Gd] | %66
 .[DGB] z .[DFA].[DFA] .[DGB] z .[DFA].[DGB] | c4- c z z2 | [Ae][Ae][Ae][Ae] [dg][dg][dg][dg] | %69
 [Ae][Ae][Ad][Ad] [Gd][Gd][Gd][Gd] | ([FA][GB] [FA]2-) ([FA][GB] [FA]2) | [DG] z z2 z4 | E8 | %73
 [F,B,_E]8 | [B,E]8 | [E,A,]8 | [D,A,]8 | [G,D]4"_cresc." [B,DG]4 |!>(! [A,DF]8!>)! | %79
 !fermata!D4 z4 | [G,B,D][G,B,D] [G,B,D][G,B,D] [G,B,D][G,B,D] [G,B,D][G,B,D] | %81
 [A,D][A,D][A,D][A,D] D4- | D4 z4 | !>![G,B,D]4 !>![G,DG]4 | !>![A,DF]8 |!<(! [G,DG]4 [B,DG]4!<)! | %86
 z2 [DGBd] z z2 [CDF] z | [B,DG]3 F/E/ DCB,A, |[K:bass] G,F,E,D, C,B,,A,,G,, | %89
 =F,,4- (3F,,F,,G,, (3C,E,=F, |!<(! (3G,C,E, (3G,A,B,[K:treble] (3CE=F (3GAB!<)! | %91
 [EGc]2- [EGc] z z4 | z8 | z8 | [CGc]2 [EAc]2 [DAc]2 [FAd]2 | [GBd]4 [DGB]4 | %96
 [B,DG]4[K:bass] [G,B,D]2 [D,G,B,]2 | [D,A,C]8 | [D,G,B,]4- [D,G,B,] z z2 | %99
[K:treble]!f! [G,C] z z [G,B,D] [G,CE] z z [A,C=F] | [G,CG] z z2 z2 [G,CE] z | %101
 ([F,A,CD]4 [G,B,]2 [F,A,C]2 | [G,B,D]4- [G,B,D]) z z2 | (d2 g2 d2 B2) | (A2 c2 A2 F2) | %105
 (G2 d2 B2 A2) |!<(! D4-!f! D2 z2!<)! | (D6 C2) | (C6 B,2) | [DG]6 [EG]2 | %110
 [B,DG]2 [A,CF]2 [G,B,G]2 [G,B,D]2 | (D6 C2) | (C6 B,2) | [G,D]6 [G,E]2 | %114
 [G,B,]2 [F,A,]2 [G,B,]2 z2 |[K:bass] !>![C,D,]4 !>![D,F,]4 | !>![B,,D,G,]4"_cresc." !>![D,G,B,]4 | %117
 [D,F,D]8- | [D,F,D]4 [D,G,D]2 [E,G,E]2 | z2[K:treble] [DGBd]2 z2 [CDF]2 | %120
 .[G,B,DG] [G,G][G,G][G,G] [G,G][G,G][G,G][G,G] | [G,B,DG]8 |] %122
V:2
 [G,,,G,,]4 [B,,,B,,]4 | [D,,D,-]4 D,C,B,,A,, | A,,G,,F,,E,, D,,C,,B,,,A,,, | %3
 [G,,,G,,]4 [B,,,B,,]4 | [D,,D,]8 | [A,,,A,,]4 [C,,C,]4 | [E,,E,]8 | [B,,,B,,]4 [D,,D,]4 | %8
 [E,,E,]4 [C,,C,]4 | [B,,,B,,]4 [C,,C,]4- | [C,,C,]4 [D,,D,]4 | G,,8 | D,D,D,D, D,,4- | D,,4 z4 | %14
 !>![G,,D,]4 !>![B,,D,]4 | !>!D,8 | B,,4 G,,4 | z2 [D,,D,] z z2 [D,,D,] z | %18
 [G,,,G,,] [D,,,D,,][E,,,E,,][F,,,F,,] [G,,,G,,][A,,,A,,][B,,,B,,][A,,,A,,] | %19
!<(! [G,,,G,,][D,,,D,,][E,,,E,,][F,,,F,,] [G,,,G,,][A,,,A,,][B,,,B,,][C,,C,]!<)! | %20
 [D,,D,][_D,,_D,][=D,,=D,][E,,E,] [F,,F,][E,,E,][F,,F,][G,,G,] | [A,,A,]4 [A,,,A,,]4 | D,,8 | %23
 G,,8 | G,,4 (E,,2 A,,,2) | D,,6 z2 | B,,8 | E,,6 z2 | [B,,,B,,]4 [G,,,G,,]4 | [D,,D,]6 C,2 | %30
!<(!{/B,,} B,4 G,4!<)! | [F,A,]8 | [A,,,A,,]8- | [A,,,A,,]8- | [A,,,A,,]2 z2 z4 | [A,,,A,,]8 | %36
 [A,,,A,,]4 A,,4- | %37
!ped! [D,,A,,] (!tenuto![F,A,]!tenuto![F,A,]!tenuto![G,B,] !tenuto![G,B,]!tenuto![B,D]!tenuto![B,D]!tenuto![_DE])!ped-up! | %38
 z2 A,2- (A, _D2 B,) | A,2- A, z z4 | [_A,B,]2-!>(! [A,B,] z z4!>)! | %41
[K:treble] z ([_DE][DE][EG] [EG][DE][DE][A,D]) |[K:bass] _D4 =D4 | [G,_D]4 F,4 | G,4 F,4 | A,,8- | %46
 A,,8 | A,,8 | [A,,,A,,]2 [_D,,_D,]2 [E,,E,]2 [A,,A,][K:treble] z | [_DE]4 [C=D]2 [B,D]2 | %50
 C2 z2 z4 |[K:bass] (B,2 E,2 G,2 _D,2 | D,8) | [A,,,A,,]8- | [A,,,A,,]8 | [A,,,A,,]8 | %56
 (D,,D, (D,3) C,/)B,,/ C,2 | (D,,C, (C,3) B,,/A,,/ B,,2) | (A,,A, (A,3) G,/F,/ G,2) | %59
 (B,,B, (B,3) A,/G,/ A,2) | ((A,,A, ((A,3)) G,/F,/ G,2)) | (G,,G, (G,3) F,/E,/ F,2) | %62
 (F,,F, (F,3) E,/D,/ E,2) | (E,,E, (E,2 E,/)D,/_D,/B,,/ D,2) | (DDDD DDDD) | %65
 [B,D][B,D][B,D][B,D] [A,D][A,D][B,D][B,D] | .[G,B,] z .[D,A,].[D,A,] .[G,B,] z .[D,A,].[G,B,] | %67
 E,2 C,2 A,, z z2 |[K:treble] [CE][CE][CE][CE] [DG][DG][DG][DG] | %69
 [CE][CE][CD][CD] [B,D][B,D][B,D][B,D] |[K:bass] (A,B, (A,2) (A,)B,) A,2 | %71
 D,/D,/E,/F,/ G,/A,/B,/C/ D2 z2 | E,,4 A,,4 | B,,4 A,,4 | G,,4 E,,4 | _D,,4 A,,,4 | %76
{/G,,,} F,,4 D,,4 | [B,,,B,,]4 [G,,,G,,]4 | [D,,D,]8 |!>(! !fermata![D,,,D,,]4 z4!>)! | G,,8 | %81
 D,D,D,D, D,,4- | D,,4 z4 | !>![G,,D,]4 !>![B,,D,]4 | !>!D,8 | B,,4 G,,4 | %86
 z2 [D,,D,] z z2 [D,,D,] z | G,3 F,/E,/ D,C,B,,A,, | G,,F,,E,,D,, C,,B,,,A,,,G,,, | %89
 =F,,,4- (3F,,,E,,,G,,, (3C,,E,,=F,, | (3G,,C,,F,, (3G,,A,,B,, (3C,E,=F, (3G,A,B, | %91
!ped!{/C,,} [C,G,C]2- [C,G,C] z z4!ped-up! | z8 | z2 .E,,, z z4 | z8 | z8 | z8 | [D,,,D,,]8 | %98
 z4 [G,,,G,,] z z2 | [C,E,] z z [G,,D,] [C,,C,] z z [=F,,C,] | [E,,C,] z z2 z2 [C,,C,] z | %101
 [D,,D,]8- | [D,,D,]4- [D,,D,] z z2 | B,,4 G,,4 | F,4 C4 | B,4 G,2 F,2 | ([C,D,]4 [B,,D,]2) z2 | %107
 B,,4 A,,4 | D,,4 G,,4 | [B,,G,]6 [C,G,]2 | D,4 G,,4 | [B,,G,]4 [A,,F,]4 | [D,F,]4 [G,,G,]4 | %113
 B,,6 A,,2 | (D,4 G,,2) z2 | [D,,,D,,]8- | [D,,,D,,]8- | [D,,,D,,-]8 | D,,3 C,, B,,,2 C,,2 | %119
 [D,,,D,,]2 [D,G,B,]2 [D,,,D,,]2 [D,,D,]2 | %120
 .[G,,,G,,] !>![G,,G,]!>![F,,F,]!>![E,,E,] !>![D,,D,]!>![C,,C,]!>![B,,,B,,]!>![A,,,A,,] | %121
 [G,,,G,,]8 |] %122
V:3
 x8 | x8 | x8 | x8 | x8 | x8 | !>!G4 !>!B4 | F/D/F/D/ F/D/F/D/ F/D/F/D/ F/D/F/D/ | %8
 G/C/G/C/ G/C/G/C/ G/E/G/E/ G/E/G/E/ | G/D/G/D/ G/D/G/D/ E2 z2 | x8 | x8 | x8 | x8 | x8 | x8 | x8 | %17
 x8 | x[K:bass] x7 | x8 |[K:treble] x8 | x8 |[K:bass] x8 | x8 | x4 G,4 | G,4 F,2 z2 | x8 | x8 | %28
 x8 | x6[K:treble] x2 | D8 | x8 | x8 | x8 | x8 | F,4!<(! G,4!<)! | x8 | x8 | x8 | x8 | x8 | x8 | %42
 x4 (A2 B2) | x8 | (D2 _D2) A,4 | x8 | x8 | x8 | x8 | x8 | A8 | G4 E4 | x8 | x8 | x8 | A,4 G,4 | %56
 x8 | x8 | x8 | x8 | x8 | x8 | x8 | x8 | x8 | x8 | x8 | G2 E2 C z z2 | x8 | x8 | D8 | x8 | %72
 [G,B,]4 [A,C]4 | x8 | E,4 G,4 | E4 _D4 | D4 F,4 | x8 | x8 | ([F,A,][G,B,] !fermata![F,A,]2) x4 | %80
 x8 | x8 | x8 | x8 | x8 | x8 | x8 | x8 |[K:bass] x8 | x8 | x4[K:treble] x4 | x8 | x8 | x8 | x8 | %95
 x8 | x4[K:bass] x4 | x8 | x8 |[K:treble] x8 | x8 | x8 | x8 | G8 | D8 | D8 | (A,4 G,2) z2 | %107
 G,4 F,4 | A,4 G,4 | x8 | x8 | G4 F4 | A4 G4 | x8 | D4- D2 z2 |[K:bass] x8 | x8 | x8 | x8 | %119
 x2[K:treble] x6 | x8 | x8 |] %122
V:4
 x8 | x8 | x8 | x8 | x8 | x8 | x8 | x8 | x8 | x8 | x8 | x8 | F,,4 [D,F,]4- | [D,F,]4 z4 | x8 | x8 | %16
 x8 | x8 | x8 | x8 | x8 | x8 | x8 | x8 | x8 | x8 | x8 | x8 | x8 | x8 | x8 | x8 | x8 | x8 | x8 | %35
 x8 | x4 F,,3 E,, | x8 | [_DE]2- [DE] z z4 | z ([_D,E,][D,E,][=D,F,] [D,F,][F,A,][F,A,][_A,B,]) | %40
 z2 !>!E,,3- _A,,F,,E,, |[K:treble] x8 |[K:bass] (A,2 G,2 F,2 G,2) | x8 | (E,2 A,,2) A,,4 | x8 | %46
 x8 | x8 | x7[K:treble] x | x8 | D2 _E2 D2 C2 |[K:bass] x8 | x8 | x8 | x8 | x8 | x8 | x8 | x8 | %59
 x8 | x8 | x8 | x8 | x8 | x8 | x8 | x8 | C4 A, z z2 |[K:treble] x8 | x8 |[K:bass] D,8 | %71
 B, z z2 z4 | x8 | x8 | x8 | x8 | x8 | x8 | x8 | x8 | x8 | F,,4 [D,F,]4- | [D,F,]4 z4 | x8 | x8 | %85
 x8 | x8 | x8 | x8 | x8 | x8 | x8 | x8 | x8 | x8 | x8 | x8 | x8 | x8 | x8 | x8 | x8 | x8 | G,8 | %104
 D,8 | D,8 | x8 | x8 | x8 | x8 | x8 | x8 | x8 | x8 | x8 | x8 | x8 | x8 | x8 | x8 | x8 | x8 |] %122
V:5
 x8 | x8 | x8 | x8 | x8 | x8 | x8 | x8 | x8 | x8 | x8 | x8 | x8 | x8 | x8 | x8 | x8 | x8 | %18
 x[K:bass] x7 | x8 |[K:treble] x8 | x8 |[K:bass] x8 | x8 | x8 | x8 | x8 | x8 | x8 | %29
 x6[K:treble] x2 | x8 | x8 | x8 | x8 | x8 | D6 B,A, | x8 | x8 | x8 | x8 | x8 | x8 | x8 | x8 | x8 | %45
 x8 | x8 | x8 | x8 | x8 | x8 | x8 | x8 | x8 | x8 | E8 | x8 | x8 | x8 | x8 | x8 | x8 | x8 | x8 | %64
 x8 | x8 | x8 | x8 | x8 | x8 | x8 | x8 | x8 | x8 | x8 | x8 | x8 | x8 | x8 | x8 | x8 | x8 | x8 | %83
 x8 | x8 | x8 | x8 | x8 |[K:bass] x8 | x8 | x4[K:treble] x4 | x8 | x8 | x8 | x8 | x8 | %96
 x4[K:bass] x4 | x8 | x8 |[K:treble] x8 | x8 | x8 | x8 | x8 | x8 | x8 | x8 | x8 | x8 | x8 | x8 | %111
 x8 | x8 | x8 | x8 |[K:bass] x8 | x8 | x8 | x8 | x2[K:treble] x6 | x8 | x8 |] %122

